!!!COM:	Johannes Ockeghem
!!!CDT:	~1425-1497/02/06
!!!OTL:	Credo [Village]
!!!AGN:	Mass section; Credo
!!!SCT:	Ock1014
!!!SCA:	Ock1014
!!!voices:	4
**kern	**kern	**kern	**kern
*staff4	*staff3	*staff2	*staff1
*Ivox	*Ivox	*Ivox	*Ivox
*I"Bassus	*I"Tenor	*I"Altus	*I"Discantus
*I'B	*I'T	*I'A	*I'D
*>[A,B,C]	*>[A,B,C]	*>[A,B,C]	*>[A,B,C]
*>A	*>A	*>A	*>A
*clefF4	*clefGv2	*clefG2	*clefG2
*k[b-]	*k[b-]	*k[b-]	*k[b-]
*M3/1	*M3/1	*M3/1	*M3/1
*met(O)	*met(O)	*met(O)	*met(O)
=1-	=1-	=1-	=1-
1.D	0.d	1d	0.r
.	.	2f/	.
2E\	.	2g/	.
2F\	.	2a/	.
[2G\	.	[2b-\	.
=2	=2	=2	=2
2G\]	0.e-	4b-\]	0.r
.	.	4g/	.
2C/	.	1g	.
1C	.	.	.
.	.	1cc	.
2r	.	.	.
[2G\	.	[2b-\	.
=3	=3	=3	=3
2G\]	0.d	4b-\]	0.r
.	.	4a/	.
2F\	.	1a	.
1G	.	.	.
.	.	2g/	.
1D	.	2f/	.
.	.	[2b-\	.
=4	=4	=4	=4
2G\	0d	2b-\]	0.r
2F\	.	2.a/	.
1G	.	.	.
.	.	4g/	.
.	.	1g	.
1A	1c	.	.
.	.	2f#i/	.
=5	=5	=5	=5
2G\	1B-	1.g	0.r
1E	.	.	.
.	0c	.	.
2C/	.	2e/	.
1C	.	1e	.
=6	=6	=6	=6
1.F	0c	1.f	1r
.	.	.	2a/
2G\	.	2e/	2b-\
1A	2A/	2e/	1cc
.	[2F/	[2a/	.
=7	=7	=7	=7
0.r	2F/]	2a/]	1cc
.	2G/	2g/	.
.	1A	2e/	1cc
.	.	2f/	.
.	1G	[1g	2b-\
.	.	.	2cc\
=8	=8	=8	=8
0.r	2r	2g/]	1dd
.	2.B-\	1f	.
.	.	.	2cc\
.	4A/	.	.
.	2c\	2e/	1cc
.	1G	1d	.
.	.	.	2bni\
=9	=9	=9	=9
0A	2r	1c	1cc
.	1c	.	.
.	.	2e/	1r
.	2A/	2f/	.
1G	2.B-\	2g/	1r
.	.	2g/	.
.	4A/	.	.
=10	=10	=10	=10
2r	2F/	1a	0.r
2F\	1c	.	.
2E\	.	2g/	.
2D\	1d	2f/	.
1A	.	1e	.
.	2c#i\	.	.
=11	=11	=11	=11
1B-	2.d\	1d	1dd
.	4e\	.	.
2A\	1f	1a	2cc\
2F\	.	.	1dd
1G	2d\	1b-	.
.	2g\	.	2ee\
=12	=12	=12	=12
1.D	2f\	1a	1ff
.	1d	.	.
.	.	2f/	1dd
2G\	2B-\	2g/	.
2r	2c\	1a	2ee-\
2F\	2d\	.	[2dd\
=13	=13	=13	=13
1G	2B-\	2g/	2dd\]
.	2G/	1g	2b-\
1D	1A	.	1a
.	.	2f#i/	.
1G	1G	1g	1r
=14	=14	=14	=14
2F\	2A/	0.r	0.r
2G\	2B-\	.	.
2E\	1c	.	.
1F	.	.	.
.	1d	.	.
2G\	.	.	.
=15	=15	=15	=15
2A\	2c\	1r	0.r
1G	2B-\	.	.
.	1A	2.c/	.
2F\	.	.	.
.	.	4d/	.
1G	1B-	1e	.
=16	=16	=16	=16
2F\	2A/	1d	1r
2D\	2B-\	.	.
1E	1c	2r	2.g/
.	.	2g/	.
.	.	.	4a/
1D	1d	2.f/	1b-
.	.	4g/	.
=17	=17	=17	=17
0.r	1d	2a/	2a/
.	.	2b-\	1dd
.	1e-	1g	.
.	.	.	2cc\
.	2d\	1a	1dd
.	2d\	.	.
=18	=18	=18	=18
0.r	2d\	2f/	2b-\
.	2c\	1g	2cc\
.	2B-\	.	2dd\
.	2c\	2e/	1cc
.	1d	2f/	.
.	.	2d/	2bni\
=19	=19	=19	=19
1C	1c	2e/	1cc
.	.	2.g/	.
1G	1B-	.	1r
.	.	4f/	.
.	.	2d/	.
1C	1c	1e	1r
=20	=20	=20	=20
0.r	2r	2f/	2a/
.	2G/	2g/	2b-\
.	2.A/	2e/	1cc
.	.	1f	.
.	8B-\L	.	.
.	8c\J	.	.
.	2d\	.	1b-
.	2B-\	2d/	.
=21	=21	=21	=21
1r	0A	1e	1cc
1D	.	2d/	1dd
.	.	1f	.
1BB-	1B-	.	1dd
.	.	4e/	.
.	.	4d/	.
=22	=22	=22	=22
1C	1G	1c	1ee-
2r	1.B-	1d	1dd
1G	.	.	.
.	.	2r	1dd
2F\	2A/	[2d/	.
=23	=23	=23	=23
2G\	2B-\	2d/]	2b-\
2E\	2G/	2e/	2cc\
2D\	2F/	1f	1.dd
1BB-	1B-	.	.
.	.	2g/	.
2C/	2A/	2e/	[2cc\
=24	=24	=24	=24
1G	1B-	1d	2cc\]
.	.	.	2bni\
0C	1G	1c	1cc
.	1c	1g	1ee
=25	=25	=25	=25
2D\	0.r	2f/	2dd\
1E	.	2g/	1gg
.	.	1a	.
2F\	.	.	2ff\
1G	.	1g	2ee\
.	.	.	[2dd\
=26	=26	=26	=26
1A	1r	1f	2dd\]
.	.	.	2cc\
1G	1d	2.g/	2.b-\
.	.	4f/	4g/
1G	2B-\	1d	2b-\
.	2G/	.	[2dd\
=27	=27	=27	=27
1F	1A	0.r	4dd\]
.	.	.	4cc\
.	.	.	2a/
1G	2G/	.	2b-\
.	1d	.	1g
1A	.	.	.
.	2c\	.	2f#i/
=28	=28	=28	=28
2G\	1d	1r	2g/
2F\	.	.	2a/
1E	2r	1g	2g/
.	2c\	.	1cc
1F	2A/	2a/	.
.	2B-\	2f/	[2dd\
=29	=29	=29	=29
2E\	1c	2.g/	4dd\]
.	.	.	4cc\
2F\	.	.	1cc
.	.	8f/L	.
.	.	8e/J	.
1G	2r	1d	.
.	2G/	.	2bni\
1A	2.c\	1r	[1cc
.	4d\	.	.
=30	=30	=30	=30
2.c\	1e	1a	1cc]
4B-\	.	.	.
1G	2r	1b-	1dd
.	1d	.	.
1A	.	1a	1r
.	2c\	.	.
=31	=31	=31	=31
2B-\	2d\	2f/	2r
2G\	2B-\	2g/	1dd
1F	1A	1a	.
.	.	.	2cc\
1r	2B-\	2g/	2dd\
.	2c\	[2g/	2b-\
=32	=32	=32	=32
1D	1A	2g/]	1a
.	.	2f#i/	.
1G	1r	1g	2.b-\
.	.	.	4a/
2D\	2A/	1r	2.f/
2G\	2B-\	.	.
.	.	.	4g/
=33	=33	=33	=33
2F\	2c\	0.r	2a/
2D\	2d\	.	2b-\
2r	1c	.	2cc\
1F	.	.	1a
.	1A	.	.
2D\	.	.	2f/
=34	=34	=34	=34
1G	2B-\	1d	2g/
.	2B-\	.	4f/
.	.	.	4g/
1D	2A/	2.f/	1a
.	2B-\	.	.
.	.	4g/	.
1r	1c	2e/	1r
.	.	[2a/	.
=35	=35	=35	=35
1r	1A	2a/]	1r
.	.	2f/	.
1r	1c	1e	2.g/
.	.	.	4a/
2r	1d	1d	2b-\
[2d\	.	.	2a/
=36	=36	=36	=36
2d\]	1d	1r	2b-\
2B-\	.	.	2.dd\
1A	1e-	1a	.
.	.	.	4cc\
.	.	.	4cc\
.	.	.	4b-\
2B-\	1d	2f/	1dd
[2G\	.	2g/	.
=37	=37	=37	=37
2G\]	1d	1a	2r
2F\	.	.	1dd
2G\	2B-\	1g	.
2E\	2c\	.	2ee\
2D\	1d	1r	1ff
2BB-/	.	.	.
=38	=38	=38	=38
1C	1c	2g/	2ee\
.	.	2e/	2cc\
1r	1B-	2.f/	1dd
.	.	4g/	.
1C	1c	1e	1g
=39	=39	=39	=39
2F\	1d	1r	2a/
2G\	.	.	2b-\
2.A\	2.c\	2e/	1cc
.	.	2f/	.
4G\	4d\	.	.
1E	1e	1g	1cc
=40	=40	=40	=40
2D\	2r	2.f/	1dd
1F	1A	.	.
.	.	4g/	.
.	.	2a/	2cc\
2G\	2B-\	1g	2b-\
2A\	2c\	.	1a
2D\	2A/	2f/	.
=41	=41	=41	=41
2r	1G	2g/	1b-
2G\	.	2e/	.
2F\	2r	1f	2a/
2D\	2F/	.	2b-\
2E\	2G/	2e/	1cc
[2F\	[2A/	2c/	.
=42	=42	=42	=42
2F\]	2A/]	1f	2a/
2D\	2F/	.	2b-\
2C/	2G/	2e/	1cc
2.F\	2.A/	2.f/	.
.	.	.	2cc\
4E\	4G/	4g/	.
2C/	[2c\	2a/	2cc\
=43	=43	=43	=43
2E\	2c\]	2g/	1cc
2F\	1d	2a/	.
2G\	.	2g/	2b-\
2A\	2c\	2e/	2cc\
2B-\	2f\	2d/	2dd\
2c\	2e\	2g/	2ee\
=44	=44	=44	=44
2F\	2d\	2a/	2ff\
2E\	2G/	2b-\	2gg\
2C/	2A/	2cc\	2cc\
1BB-	2.B-\	2f/	1dd
.	.	2.g/	.
.	4G/	.	.
2C/	2c\	.	[2cc\
.	.	4a/	.
=45	=45	=45	=45
1G	1d	1g	2cc\]
.	.	.	2bni\
0Cl	0cl	0gl	0ccl
!!LO:LB:i:g=z
=46||	=46||	=46||	=46||
*>B	*>B	*>B	*>B
*clefF4	*clefGv2	*clefG2	*clefG2
*k[b-]	*k[b-]	*k[b-]	*k[b-]
*M2/1	*M2/1	*M2/1	*M2/1
*met(C|)	*met(C|)	*met(C|)	*met(C|)
!!section: Et incarnatus est
!!!OMD: Et incarnatus est
2D\	1r	0r	0r
2E\	.	.	.
1F	2A/	.	.
.	2B-\	.	.
=47	=47	=47	=47
2F\	2c\	0r	0r
2F\	2c\	.	.
2F\	2c\	.	.
[2F\	2c\	.	.
=48	=48	=48	=48
2F\]	1c	0r	0r
2F\	.	.	.
1F	2c\	.	.
.	[2c\	.	.
=49	=49	=49	=49
2E\	2c\]	0r	0r
2D\	2B-\	.	.
2F\	2A/	.	.
2G\	[2d\	.	.
=50	=50	=50	=50
1E	2d\]	0r	0r
.	2c#i\	.	.
1D	1d	.	.
=51	=51	=51	=51
2r	1d	0r	0r
2.F\	.	.	.
.	1e-	.	.
4E-i\	.	.	.
4D\	.	.	.
4C/	.	.	.
=52	=52	=52	=52
2BB-/	1d	0r	0r
2F\	.	.	.
2E\	1c	.	.
2F\	.	.	.
=53	=53	=53	=53
2G\	2B-\	0r	0r
2E\	2c\	.	.
2D\	1d	.	.
[2F\	.	.	.
=54	=54	=54	=54
4F\]	2c\	0r	0r
4E\	.	.	.
4D\	1c	.	.
4C/	.	.	.
1D	.	.	.
.	2Bni\	.	.
=55	=55	=55	=55
1C	1c	0r	0r
1r	1r	.	.
=56	=56	=56	=56
0G	0d	[0g	0b-
=57	=57	=57	=57
0c	0e-	1g]	0cc
.	.	1a	.
=58	=58	=58	=58
1B-	0d	0b-	0dd
[1G	.	.	.
=59	=59	=59	=59
1G]	1B-	0g	1dd
1E	1c	.	1ee
=60	=60	=60	=60
1D	0d	1f	[0ff
[1F	.	[1a	.
=61	=61	=61	=61
2F\]	1c	1a]	1ff]
2E\	.	.	.
1C	[1c	1g	[1ee
=62	=62	=62	=62
0G	1c]	0g	2ee\]
.	.	.	2cc\
.	1Bni	.	1dd
=63	=63	=63	=63
1C	1c	1g	1eel
1r	2c\	1r	1r
.	2A/	.	.
=64	=64	=64	=64
0r	2.B-\	1g	0r
.	4A/	.	.
.	2F/	1a	.
.	[2c\	.	.
=65	=65	=65	=65
0r	2c\]	2g/	0r
.	1d	2f/	.
.	.	1e	.
.	2c\	.	.
=66	=66	=66	=66
0r	2A/	2f/	0r
.	2B-\	2d/	.
.	2c\	2e/	.
.	2d\	2f/	.
=67	=67	=67	=67
0r	4c\	1g	0r
.	2B-\	.	.
.	8A/L	.	.
.	8G/J	.	.
.	1F	1a	.
=68	=68	=68	=68
0r	2r	1a	0r
.	2c\	.	.
.	2d\	1b-	.
.	2e\	.	.
=69	=69	=69	=69
0r	2f\	1a	0r
.	1d	.	.
.	.	2f/	.
.	2e\	2g/	.
=70	=70	=70	=70
0r	2c\	1a	0r
.	2.d\	.	.
.	.	1g	.
.	4c\	.	.
.	2B-\	.	.
=71	=71	=71	=71
0r	1A	1f	0r
.	1G	1g	.
=72	=72	=72	=72
1D	1d	2a/	0r
.	.	1b-	.
2G\	1e-	.	.
2A\	.	4a/	.
.	.	4g/	.
=73	=73	=73	=73
2B-\	1d	2f/	0r
2G\	.	2b-\	.
2F\	1d	2a/	.
[2G\	.	[2g/	.
=74	=74	=74	=74
2G\]	2B-\	2g/]	0r
2A\	2c\	4f/	.
.	.	4e/	.
2B-\	1d	2d/	.
2G\	.	2B-/	.
=75	=75	=75	=75
1A	2c\	1c	0r
.	1c	.	.
1G	.	1d	.
.	2Bni\	.	.
=76	=76	=76	=76
0Cl	0cl	0cl	0r
!!LO:LB:i:g=z
=77||	=77||	=77||	=77||
*>C	*>C	*>C	*>C
*clefF4	*clefGv2	*clefG2	*clefG2
*k[b-]	*k[b-]	*k[b-]	*k[b-]
*M2/1	*M2/1	*M2/1	*M2/1
*met(C|)	*met(C|)	*met(C|)	*met(C|)
!!section: Et resurrexit
!!!OMD: Et resurrexit
0r	0c	0g	0r
=78	=78	=78	=78
0r	1B-	0g	0r
.	1c	.	.
=79	=79	=79	=79
0r	1F	0a	0r
.	[1c	.	.
=80	=80	=80	=80
0r	1c]	0g	0r
.	1B-	.	.
=81	=81	=81	=81
0r	1G	0e	0r
.	[1c	.	.
=82	=82	=82	=82
0r	2c\]	0f	0r
.	2A/	.	.
.	1B-	.	.
=83	=83	=83	=83
0r	1c	1e	0r
.	1A	1f	.
=84	=84	=84	=84
0r	1.B-	0g	0r
.	2A/	.	.
=85	=85	=85	=85
0r	0F	0a	1.cc
.	.	.	2dd\
=86	=86	=86	=86
0r	0r	0a	1ee
.	.	.	[1ff
=87	=87	=87	=87
0r	0r	0b-	1ff]
.	.	.	1dd
=88	=88	=88	=88
0r	0r	0a	2cc\
.	.	.	2ff\
.	.	.	2ee\
.	.	.	[2cc\
=89	=89	=89	=89
0r	0r	1f	2cc\]
.	.	.	1dd
.	.	1g	.
.	.	.	4cc\
.	.	.	4b-\
=90	=90	=90	=90
0r	0r	0a	2.cc\
.	.	.	4b-\
.	.	.	4a/
.	.	.	4g/
.	.	.	2f/
=91	=91	=91	=91
0r	0r	0g	2g/
.	.	.	2.b-\
.	.	.	4cc\
.	.	.	[2dd\
=92	=92	=92	=92
0r	0r	0f	2dd\]
.	.	.	4cc\
.	.	.	4b-\
.	.	.	1a
=93	=93	=93	=93
0r	1r	1g	1g
.	2c\	2e/	2a/
.	2d\	2f/	2b-\
=94	=94	=94	=94
0r	1e	1g	1cc
.	2d\	2f/	2b-\
.	2c\	2e/	2a/
=95	=95	=95	=95
0r	1e	1g	1cc
.	1d	1a	1dd
=96	=96	=96	=96
0r	1f	1a	1dd
.	1g	1b-	1ee-
=97	=97	=97	=97
0r	2f\	2a/	2dd\
.	2f\	2a/	2dd\
.	1f	1a	1dd
=98	=98	=98	=98
0r	2d\	2f/	2b-\
.	2c\	2g/	2cc\
.	1f	1a	1dd
=99	=99	=99	=99
0r	2e\	2g/	2cc\
.	2c\	1g	1cc
.	1d	.	.
.	.	2f/	2bni\
=100	=100	=100	=100
0C	[0c	0g	[0cc
=101	=101	=101	=101
1E	0c]	0r	1cc]
1F	.	.	1a
=102	=102	=102	=102
0G	0r	0g	1.b-
.	.	.	2g/
=103	=103	=103	=103
1G	0d	1.g	1b-
1G	.	.	[1dd
.	.	4f/	.
.	.	4e/	.
=104	=104	=104	=104
1G	0B-	1d	1dd]
1G	.	[1g	1ee-i
=105	=105	=105	=105
0G	1G	1g]	1dd
.	1d	1g	1b-
=106	=106	=106	=106
0A	2c\	1e	0cc
.	1c	.	.
.	.	1f	.
.	4B-\	.	.
.	4c\	.	.
=107	=107	=107	=107
1G	0d	1g	1b-
1F	.	1d	1a
=108	=108	=108	=108
0E	1c	0e	1r
.	1B-	.	1g
=109	=109	=109	=109
0F	0A	0c	1a
.	.	.	[1cc
=110	=110	=110	=110
1E	1G	1g	1cc]
1F	[1d	1a	1a
=111	=111	=111	=111
0G	1d]	2g/	2b-\
.	.	2f/	2cc\
.	1B-	1d	1dd
=112	=112	=112	=112
0A	[0c	1r	2cc\
.	.	.	2a/
.	.	[1f	[1a
=113	=113	=113	=113
0A	1c]	2f/]	1a]
.	.	2e/	.
.	1A	1c	1f
=114	=114	=114	=114
0B-	0G	1d	1.g
.	.	[1e	.
.	.	.	2f/
=115	=115	=115	=115
0A	1r	1e]	0a
.	1F	1f	.
=116	=116	=116	=116
1F	1A	1d	1r
1G	1G	1g	1b-
=117	=117	=117	=117
0A	0c	2f/	1a
.	.	1f	.
.	.	.	1cc
.	.	2e/	.
=118	=118	=118	=118
1G	0d	[0g	1b-
[1G	.	.	[1g
=119	=119	=119	=119
1G]	1e	1g]	1g]
1F	1f	1a	[1cc
=120	=120	=120	=120
0G	0d	0g	2cc\]
.	.	.	2bni\
.	.	.	2bni\
.	.	.	2a/
=121	=121	=121	=121
1C	1c	1e	1.cc
1r	1A	1f	.
.	.	.	2dd\
=122	=122	=122	=122
1C	0G	0g	1ee
1G	.	.	1dd
=123	=123	=123	=123
1C	1c	0g	2ee\
.	.	.	1gg
1r	1B-	.	.
.	.	.	2ff\
=124	=124	=124	=124
1C	1c	0g	2.ee\
.	.	.	4dd\
1G	2B-\	.	1dd
.	2G/	.	.
=125	=125	=125	=125
1D	1A	1f	1dd
1G	1G	1g	1b-
=126	=126	=126	=126
0F	1c	0a	1a
.	1A	.	1cc
=127	=127	=127	=127
0G	1d	1g	1b-
.	1B-	[1g	1g
=128	=128	=128	=128
0D	0A	1g]	0a
.	.	1f#i	.
=129	=129	=129	=129
2r	1G	0g	1b-
1G	.	.	.
.	1r	.	1g
2E\	.	.	.
=130	=130	=130	=130
2F\	2A/	1f	0r
2G\	2B-\	.	.
1A	2c\	2.e/	.
.	2c\	.	.
.	.	4f/	.
=131	=131	=131	=131
2G\	1c	2g/	0r
2F\	.	1a	.
1E	1c	.	.
.	.	2g/	.
=132	=132	=132	=132
1D	1d	2f/	0r
.	.	2d/	.
2r	2c\	1e	.
[2G\	2B-\	.	.
=133	=133	=133	=133
2G\]	1A	1d	0r
2F\	.	.	.
2E\	1G	1c	.
2C/	.	.	.
=134	=134	=134	=134
1D	1d	1f	2a/
.	.	.	2b-\
1C	1e-	1g	1cc
=135	=135	=135	=135
2r	1d	1a	2dd\
2F\	.	.	2ff\
2G\	2B-\	2b-\	2ee\
2A\	2c\	2a/	[2ff\
=136	=136	=136	=136
1B-	1d	2f/	2ff\]
.	.	1g	2dd\
2A\	2c\	.	2ee\
2F\	2A/	[2f/	[2dd\
=137	=137	=137	=137
1G	1B-	2f/]	2dd\]
.	.	2e/	2b-\
1F	1c	1f	1a
=138	=138	=138	=138
2G\	2B-\	2e/	2g/
2A\	2c\	2f/	2f/
[1B-	2d\	1g	1d
.	[2G/	.	.
=139	=139	=139	=139
2B-\]	2G/]	1g	0r
2G\	1d	.	.
2B-\	.	2g/	.
2c\	2c\	2g/	.
=140	=140	=140	=140
1d	2B-\	1g	0r
.	4A/	.	.
.	4G/	.	.
2D\	2A/	2f/	.
[2G\	2B-\	2g/	.
=141	=141	=141	=141
4G\]	1c	1a	0r
4E\	.	.	.
2F\	.	.	.
2G\	2B-\	2g/	.
2E\	2G/	[2g/	.
=142	=142	=142	=142
1D	1A	2g/]	0r
.	.	2f#i/	.
1G	1G	1g	.
=143	=143	=143	=143
1F	2A/	0r	2.cc\
.	2B-\	.	.
.	.	.	4b-\
2E\	1c	.	2g/
[2F\	.	.	[2a/
=144	=144	=144	=144
4F\]	1c	0r	4a/]
4E\	.	.	4g/
2A\	.	.	2cc\
2G\	1d	.	2b-\
[2F\	.	.	[2a/
=145	=145	=145	=145
2F\]	2c\	0r	4a/]
.	.	.	4g/
2G\	2B-\	.	1g
1D	1A	.	.
.	.	.	2f#i/
=146	=146	=146	=146
1G	2B-\	0d	1g
.	2G/	.	.
2F\	2A/	.	2r
2G\	2B-\	.	[2g/
=147	=147	=147	=147
1C	1c	1e	2g/]
.	.	.	1a
1r	1d	2.f/	.
.	.	.	2b-\
.	.	4g/	.
=148	=148	=148	=148
0r	1d	2a/	2a/
.	.	2b-\	1dd
.	1e-	1g	.
.	.	.	2cc\
=149	=149	=149	=149
1.D	1d	1a	1.dd
.	2B-\	1r	.
2C/	2c\	.	2ee\
=150	=150	=150	=150
1BB-	1d	1b-	2ff\
.	.	.	2gg\
2C/	2c\	2g/	2ee\
2E-i\	[2c\	[2g/	2cc\
=151	=151	=151	=151
1D	4c\]	4g/]	2.dd\
.	4A/	4a/	.
.	2Bni\	2f/	.
.	.	.	4cc\
[1C	[1c	[1e	2a/
.	.	.	[2g/
=152	=152	=152	=152
1C]	0c_	2e/]	2g/]
.	.	2f/	1cc
1E	.	1g	.
.	.	.	2b-\
=153	=153	=153	=153
1F	1c]	1f	1a
1G	1B-	[1d	[1g
=154	=154	=154	=154
1G	1B-	1d]	1g]
[1G	1B-	[1d	1g
=155	=155	=155	=155
1G]	1B-	1d]	1g
1F	1A	1d	1a
=156	=156	=156	=156
1G	1B-	0e	1g
[1A	[1c	.	[1cc
=157	=157	=157	=157
1A]	1c]	1c	1cc]
[1G	1r	1d	1b-
=158	=158	=158	=158
1G]	1B-	1e	1g
[1F	[1c	[1f	[1a
=159	=159	=159	=159
1F]	2c\]	2f/]	1a]
.	2d\	2d/	.
[1G	1B-	1d	1g
=160	=160	=160	=160
2G\]	1r	1r	2r
2E\	.	.	1cc
2F\	2A/	1f	.
2D\	2B-\	.	2dd\
=161	=161	=161	=161
1C	1c	1g	1ee
1F	1c	1a	1ff
=162	=162	=162	=162
0C	1c	1g	2ee\
.	.	.	1gg
.	1c	1g	.
.	.	.	2ee\
=163	=163	=163	=163
1BB-	1d	0r	2ff\
.	.	.	2gg\
2C/	2c\	.	2ee\
2D\	2B-\	.	[2dd\
=164	=164	=164	=164
1F	1A	0r	2dd\]
.	.	.	2cc\
1G	1G	.	2b-\
.	.	.	2g/
=165	=165	=165	=165
1F	1d	0r	1a
1G	1e-	.	1g
=166	=166	=166	=166
1D	2d\	1f	2a/
.	2d\	.	1b-
1E	2d\	2.g/	.
.	2c\	.	2cc\
.	.	4e/	.
=167	=167	=167	=167
2D\	2B-\	2f/	2dd\
2C/	2c\	2g/	2ee\
1F	1d	1a	1ff
=168	=168	=168	=168
1C	2c\	1g	1ee
.	1c	.	.
2D\	.	1r	2ff\
[2E\	2B-\	.	[2gg\
=169	=169	=169	=169
2E\]	2c\	1r	2gg\]
2F\	2d\	.	2ff\
2C/	2c\	2.e/	2ee\
[2G\	[2B-\	.	[2dd\
.	.	4f/	.
=170	=170	=170	=170
4G\]	4B-\]	2g/	4dd\]
4A\	4c\	.	4cc\
2c\	2e-i\	2g/	1cc
1G	1d	1g	.
.	.	.	2bni\
=171	=171	=171	=171
1C	2.c\	1g	1cc
.	4B-\	.	.
1r	2G/	1g	1r
.	2E/	.	.
=172	=172	=172	=172
0r	1F	1a	1cc
.	1G	1g	1b-
=173	=173	=173	=173
0r	0r	1e	2g/
.	.	.	2.cc\
.	.	2f/	.
.	.	.	4a/
.	.	2d/	2b-\
=174	=174	=174	=174
0r	0r	2e/	2cc\
.	.	2f/	1dd
.	.	1g	.
.	.	.	2b-\
=175	=175	=175	=175
0r	0r	1a	2cc\
.	.	.	1a
.	.	2f/	.
.	.	2g/	2b-\
=176	=176	=176	=176
0r	0r	1a	2a/
.	.	.	2cc\
.	.	2g/	2dd\
.	.	[2g/	2g/
=177	=177	=177	=177
0r	0r	2g/]	1a
.	.	2f#i/	.
.	.	[1g	1g
=178	=178	=178	=178
0r	1c	2g/]	0r
.	.	2e/	.
.	1d	1f	.
=179	=179	=179	=179
0r	1c	1e	0r
.	1A	2c/	.
.	.	[2f/	.
=180	=180	=180	=180
0r	2B-\	4f/]	0r
.	.	4d/	.
.	2G/	2e/	.
.	2A/	2f/	.
.	2B-\	[2g/	.
=181	=181	=181	=181
0r	1c	2g/]	0r
.	.	2e/	.
.	1d	2d/	.
.	.	2f/	.
=182	=182	=182	=182
0r	2B-\	2g/	0r
.	2c\	1a	.
.	1d	.	.
.	.	2f/	.
=183	=183	=183	=183
0r	2c\	2g/	0r
.	1c	2c/	.
.	.	1d	.
.	2Bni\	.	.
=184	=184	=184	=184
0r	0c	1c	0r
.	.	1r	.
=185	=185	=185	=185
1F	0d	0r	1a
1G	.	.	1b-
=186	=186	=186	=186
0A	1c	0e	0cc
.	[1A	.	.
=187	=187	=187	=187
0F	2A/]	1f	0cc
.	2B-\	.	.
.	1c	1a	.
=188	=188	=188	=188
0G	2e\	1.g	0b-
.	1d	.	.
.	2G/	2e/	.
=189	=189	=189	=189
0D	2A/	1f	0a
.	1F	.	.
.	.	[1d	.
.	4E/	.	.
.	4F/	.	.
=190	=190	=190	=190
1.E-	1.G	2d/]	0g
.	.	2B-/	.
.	.	1c	.
2D\	2A/	.	.
=191	=191	=191	=191
1BB-	1B-	1d	0r
[1C	1A	[1e	.
=192	=192	=192	=192
1C]	1G	2e/]	0g
.	.	2c/	.
1E-i	1c	1c	.
=193	=193	=193	=193
0D	2B-\	0f	0dd
.	1B-	.	.
.	2A/	.	.
=194	=194	=194	=194
0C	1.c	1.g	[0ee-
.	4B-\	4a/	.
.	4A/	4b-\	.
=195	=195	=195	=195
0C	1G	1.cc	0ee-]
.	1A	.	.
.	.	4b-\	.
.	.	4a/	.
=196	=196	=196	=196
1r	0B-	0g	0dd
1G	.	.	.
=197	=197	=197	=197
1F	1A	1a	[0dd
[1G	[1B-	[1g	.
=198	=198	=198	=198
2G\]	2B-\]	1g]	0dd]
2F\	2A/	.	.
1D	1F	1f	.
=199	=199	=199	=199
1E-	1G	0e-	0r
1C	1A	.	.
=200	=200	=200	=200
1BB-	0B-	1d	0dd
1B-	.	[1f	.
=201	=201	=201	=201
1A	1c	1f]	1cc
1G	[1d	[1g	[1b-
=202	=202	=202	=202
1G	1d]	1g]	1b-]
1A	1c	1e	1cc
=203	=203	=203	=203
1D	1A	1.f	0dd
1r	1B-	.	.
.	.	2d/	.
=204	=204	=204	=204
0r	1.A	1e	1cc
.	.	1f	1a
.	2F/	.	.
=205	=205	=205	=205
0r	1G	1d	1b-
.	1A	1c	2a/
.	.	.	[2a/
=206	=206	=206	=206
0D	[0A	0d	2a/]
.	.	.	2f/
.	.	.	1f
=207	=207	=207	=207
0AA	0A]	2c#i/	0e
.	.	1c#i	.
.	.	2Bni/	.
=208	=208	=208	=208
*M3/1	*M3/1	*M3/1	*M3/1
*met(3)	*met(3)	*met(3)	*met(3)
0D	1.A	0d	0d
.	2B-\	.	.
1C	1c	1e	1a
=209	=209	=209	=209
1BB-	1d	1f	0b-
0E-i	1.e-i	0g	.
.	.	.	1cc
.	2d\	.	.
=210	=210	=210	=210
1D	1B-	1f	1dd
0C	1.c	0g	0ee-i
.	2A/	.	.
=211	=211	=211	=211
1.D	0A	0f	1.dd
2E\	.	.	4cc\
.	.	.	4b-\
1F	1A	[1d	1a
=212	=212	=212	=212
1.G	1.B-	1d]	1g
.	.	0g	1b-
2F\	2A/	.	.
1E	1G	.	1cc
=213	=213	=213	=213
0D	1A	0f	1.dd
.	1F	.	.
.	.	.	2cc\
1E-i	1B-	1g	1b-
=214	=214	=214	=214
1C	1c	1e	1a
0BB-	0d	1.f	0b-
.	.	2g/	.
=215	=215	=215	=215
1F	1c	1f	1a
1G	1B-	0d	1g
1D	1A	.	1f
=216	=216	=216	=216
0G	0B-	1d	0g
.	.	1e	.
1D	[1A	1f	[1a
=217	=217	=217	=217
1C	0.A]	1e	0.a]
1.D	.	2d/	.
.	.	1f	.
2C/	.	2e/	.
=218	=218	=218	=218
0.AAl	0.Al	0.el	0.al
==	==	==	==
*-	*-	*-	*-
!!!RDF**kern: l=long note in original notation
!!!RDF**kern: i=editorial accidental
!!!RDF**kern: V=start of tuplet marker
!!!RDF**kern: Z=end of tuplet marker
!!!ENC:	Jesse Rodin 8-16-2012
!!!END:	2012/08/16/
!!!EED:	Jesse Rodin
!!!EEV:	2012/08/16/
!!!ONB:	Translated from MusicXML and edited on 2012/08/16/ by Craig Sapp
!!muse2ps: C^@{COM}^i2I150v85,85,85,150Q16c110
